X:8
T:Barmaid
Z: id:dc-reel-9
M:C
L:1/8
K:D Major
E|FAAB AFED|FAAB A2de|fBBA Bcde|f2gf edBA|!
FAAB AFED|FAAB A2de|fBBA BcdB|AFEF D3:|!
g|faag fdde|fdad fddf|efga beef|gebe geeg|!
fgaf b2af|defd e2de|fdBc dedB|AFEF D3:|!

